latex_in_markdown/.watch-latex-md-images/eefa3ffc21ccf3c8d25ed9f9c8d2019d.svg

<ns0:svg xmlns:ns0="http://www.w3.org/2000/svg" xmlns:ns1="http://www.w3.org/1999/xlink" height="12.5326pt" version="1.1" viewBox="23.686 62.8603 46.6209 12.5326" width="46.6209pt" watch_lated_md:baseline="0.6730999999999963" xmlns:watch_lated_md="https://github.com/Quansight/pearu-sandbox/latex_in_markdown/">
<ns0:defs>
<ns0:path d="m4.61374 -5.40565h0.619756l2.58232 3.99398c0.172154 0.275447 0.585325 0.946849 0.774695 1.20508c0.120508 0.206585 0.172154 0.206585 0.56811 0.206585h2.37573c0.309878 0 0.56811 0 0.56811 -0.309878c0 -0.137724 -0.103293 -0.258232 -0.258232 -0.292662c-0.636971 -0.137724 -1.48053 -1.27394 -1.8937 -1.82484c-0.120508 -0.172154 -0.98128 -1.30837 -2.13471 -3.16764c1.53217 -0.275447 3.0127 -0.929634 3.0127 -2.97827c0 -2.39295 -2.53067 -3.21929 -4.56209 -3.21929h-5.40565c-0.309878 0 -0.585325 0 -0.585325 0.309878c0 0.292662 0.327093 0.292662 0.464817 0.292662c0.98128 0 1.06736 0.120508 1.06736 0.98128v8.62494c0 0.860772 -0.0860772 0.98128 -1.06736 0.98128c-0.137724 0 -0.464817 0 -0.464817 0.292662c0 0.309878 0.275447 0.309878 0.585325 0.309878h4.71703c0.309878 0 0.56811 0 0.56811 -0.309878c0 -0.292662 -0.292662 -0.292662 -0.482032 -0.292662c-0.98128 0 -1.05014 -0.137724 -1.05014 -0.98128v-3.82183zm3.32258 -0.843557c0.482032 -0.636971 0.533679 -1.54939 0.533679 -2.30687c0 -0.826341 -0.103293 -1.73876 -0.654187 -2.44459c0.705833 0.154939 2.41016 0.688618 2.41016 2.42738c0 1.119 -0.516463 1.99699 -2.28965 2.32408zm-3.32258 -4.0112c0 -0.361524 0 -0.929634 1.06736 -0.929634c1.46331 0 2.18636 0.60254 2.18636 2.63396c0 2.22079 -0.533679 2.54789 -3.25372 2.54789v-4.25221zm-2.3413 9.65786c0.137724 -0.309878 0.137724 -0.79191 0.137724 -0.946849v-8.6938c0 -0.172154 0 -0.636971 -0.137724 -0.946849h1.96256c-0.223801 0.275447 -0.223801 0.619756 -0.223801 0.877987v8.76266c0 0.172154 0 0.636971 0.137724 0.946849h-1.87648zm3.66689 -4.80311c0.120508 -0.0172154 0.18937 -0.0344309 0.327093 -0.0344309c0.258232 0 0.636971 -0.0344309 0.895203 -0.0688618c0.258232 0.413171 2.1175 3.47752 3.54638 4.9064h-1.6699l-3.09878 -4.80311z" id="g0-82" />
<ns0:path d="m9.43406 -3.95955c0.292662 0 0.60254 0 0.60254 -0.344309s-0.309878 -0.344309 -0.60254 -0.344309h-7.29935c0.206585 -2.30687 2.18636 -3.95955 4.61374 -3.95955h2.68561c0.292662 0 0.60254 0 0.60254 -0.344309s-0.309878 -0.344309 -0.60254 -0.344309h-2.72004c-2.94384 0 -5.28514 2.23801 -5.28514 4.99248s2.3413 4.99248 5.28514 4.99248h2.72004c0.292662 0 0.60254 0 0.60254 -0.344309s-0.309878 -0.344309 -0.60254 -0.344309h-2.68561c-2.42738 0 -4.40715 -1.65268 -4.61374 -3.95955h7.29935z" id="g1-50" />
<ns0:path d="m5.18185 -2.04864c-0.0860772 0.292662 -0.0860772 0.327093 -0.327093 0.654187c-0.37874 0.482032 -1.13622 1.2223 -1.94534 1.2223c-0.705833 0 -1.10179 -0.636971 -1.10179 -1.65268c0 -0.946849 0.533679 -2.87498 0.860772 -3.59803c0.585325 -1.20508 1.39445 -1.82484 2.06585 -1.82484c1.13622 0 1.36002 1.41167 1.36002 1.54939c0 0.0172154 -0.0516463 0.241016 -0.0688618 0.275447l-0.843557 3.37423zm1.10179 -4.40715c-0.18937 -0.447601 -0.654187 -1.13622 -1.54939 -1.13622c-1.94534 0 -4.04563 2.51345 -4.04563 5.06134c0 1.70433 0.998496 2.70282 2.16915 2.70282c0.946849 0 1.75597 -0.740264 2.23801 -1.30837c0.172154 1.01571 0.98128 1.30837 1.49774 1.30837s0.929634 -0.309878 1.23951 -0.929634c0.275447 -0.585325 0.516463 -1.63547 0.516463 -1.70433c0 -0.0860772 -0.0688618 -0.154939 -0.172154 -0.154939c-0.154939 0 -0.172154 0.0860772 -0.241016 0.344309c-0.258232 1.01571 -0.585325 2.10028 -1.29116 2.10028c-0.499248 0 -0.533679 -0.447601 -0.533679 -0.79191c0 -0.395955 0.0516463 -0.585325 0.206585 -1.25673c0.120508 -0.430386 0.206585 -0.809126 0.344309 -1.30837c0.636971 -2.58232 0.79191 -3.20207 0.79191 -3.30536c0 -0.241016 -0.18937 -0.430386 -0.447601 -0.430386c-0.550894 0 -0.688618 0.60254 -0.723049 0.809126z" id="g2-97" />
<ns0:path d="m2.85776 -0.705833c0 -0.430386 -0.344309 -0.705833 -0.705833 -0.705833c-0.344309 0 -0.705833 0.275447 -0.705833 0.705833s0.344309 0.705833 0.705833 0.705833c0.344309 0 0.705833 -0.275447 0.705833 -0.705833z" id="g3-46" />
</ns0:defs>
<ns0:g id="page1">
<ns0:use x="27.9837" ns1:href="#g2-97" y="74.7198" />
<ns0:use x="41.6144" ns1:href="#g1-50" y="74.7198" />
<ns0:use x="57.8734" ns1:href="#g0-82" y="74.7198" />
</ns0:g>
</ns0:svg>

<ns0:svg xmlns:ns0="http://www.w3.org/2000/svg" xmlns:ns1="http://www.w3.org/1999/xlink" height="12.5326pt" version="1.1" viewBox="23.686 62.8603 46.6209 12.5326" width="46.6209pt" watch_lated_md:baseline="0.6730999999999963" xmlns:watch_lated_md="https://github.com/Quansight/pearu-sandbox/latex_in_markdown/">
<ns0:defs>
<ns0:path d="M4.61374 -5.40565H5.23349L7.81581 -1.41167C7.98796 -1.13622 8.40114 -0.464817 8.5905 -0.206585C8.71101 0 8.76266 0 9.15861 0H11.5343C11.8442 0 12.1025 0 12.1025 -0.309878C12.1025 -0.447601 11.9992 -0.56811 11.8442 -0.60254C11.2073 -0.740264 10.3637 -1.87648 9.95052 -2.42738C9.83002 -2.59953 8.96924 -3.73575 7.81581 -5.59502C9.34798 -5.87047 10.8285 -6.52465 10.8285 -8.57329C10.8285 -10.9662 8.29784 -11.7926 6.26642 -11.7926H0.860772C0.550894 -11.7926 0.275447 -11.7926 0.275447 -11.4827C0.275447 -11.19 0.60254 -11.19 0.740264 -11.19C1.72154 -11.19 1.80762 -11.0695 1.80762 -10.2088V-1.58382C1.80762 -0.723049 1.72154 -0.60254 0.740264 -0.60254C0.60254 -0.60254 0.275447 -0.60254 0.275447 -0.309878C0.275447 0 0.550894 0 0.860772 0H5.5778C5.88768 0 6.14591 0 6.14591 -0.309878C6.14591 -0.60254 5.85325 -0.60254 5.66388 -0.60254C4.6826 -0.60254 4.61374 -0.740264 4.61374 -1.58382V-5.40565ZM7.93632 -6.24921C8.41835 -6.88618 8.47 -7.79859 8.47 -8.55607C8.47 -9.38242 8.3667 -10.2948 7.81581 -11.0007C8.52164 -10.8457 10.226 -10.312 10.226 -8.57329C10.226 -7.45429 9.70951 -6.5763 7.93632 -6.24921ZM4.61374 -10.2604C4.61374 -10.6219 4.61374 -11.19 5.6811 -11.19C7.14441 -11.19 7.86746 -10.5875 7.86746 -8.55607C7.86746 -6.33528 7.33378 -6.00819 4.61374 -6.00819V-10.2604ZM2.27244 -0.60254C2.41016 -0.912418 2.41016 -1.39445 2.41016 -1.54939V-10.2432C2.41016 -10.4153 2.41016 -10.8802 2.27244 -11.19H4.235C4.0112 -10.9146 4.0112 -10.5703 4.0112 -10.312V-1.54939C4.0112 -1.37724 4.0112 -0.912418 4.14892 -0.60254H2.27244ZM5.93933 -5.40565C6.05984 -5.42286 6.1287 -5.44008 6.26642 -5.44008C6.52465 -5.44008 6.90339 -5.47451 7.16162 -5.50894C7.41986 -5.09577 9.27912 -2.03142 10.708 -0.60254H9.03811L5.93933 -5.40565Z" id="g0-82" />
<ns0:path d="M9.43406 -3.95955C9.72672 -3.95955 10.0366 -3.95955 10.0366 -4.30386S9.72672 -4.64817 9.43406 -4.64817H2.13471C2.3413 -6.95504 4.32108 -8.60772 6.74845 -8.60772H9.43406C9.72672 -8.60772 10.0366 -8.60772 10.0366 -8.95203S9.72672 -9.29634 9.43406 -9.29634H6.71402C3.77018 -9.29634 1.42888 -7.05833 1.42888 -4.30386S3.77018 0.688618 6.71402 0.688618H9.43406C9.72672 0.688618 10.0366 0.688618 10.0366 0.344309S9.72672 0 9.43406 0H6.74845C4.32108 0 2.3413 -1.65268 2.13471 -3.95955H9.43406Z" id="g1-50" />
<ns0:path d="M5.18185 -2.04864C5.09577 -1.75597 5.09577 -1.72154 4.85475 -1.39445C4.47601 -0.912418 3.71854 -0.172154 2.90941 -0.172154C2.20358 -0.172154 1.80762 -0.809126 1.80762 -1.82484C1.80762 -2.77169 2.3413 -4.69982 2.66839 -5.42286C3.25372 -6.62794 4.06284 -7.2477 4.73425 -7.2477C5.87047 -7.2477 6.09427 -5.83603 6.09427 -5.69831C6.09427 -5.6811 6.04262 -5.45729 6.0254 -5.42286L5.18185 -2.04864ZM6.28364 -6.45579C6.09427 -6.90339 5.62945 -7.59201 4.73425 -7.59201C2.7889 -7.59201 0.688618 -5.07856 0.688618 -2.53067C0.688618 -0.826341 1.68711 0.172154 2.85776 0.172154C3.80461 0.172154 4.61374 -0.56811 5.09577 -1.13622C5.26792 -0.120508 6.07705 0.172154 6.59351 0.172154S7.52315 -0.137724 7.83303 -0.757479C8.10847 -1.3428 8.34949 -2.39295 8.34949 -2.46181C8.34949 -2.54789 8.28063 -2.61675 8.17733 -2.61675C8.0224 -2.61675 8.00518 -2.53067 7.93632 -2.27244C7.67809 -1.25673 7.35099 -0.172154 6.64516 -0.172154C6.14591 -0.172154 6.11148 -0.619756 6.11148 -0.964065C6.11148 -1.36002 6.16313 -1.54939 6.31807 -2.22079C6.43857 -2.65118 6.52465 -3.02992 6.66238 -3.52917C7.29935 -6.11148 7.45429 -6.73124 7.45429 -6.83453C7.45429 -7.07555 7.26492 -7.26492 7.00668 -7.26492C6.45579 -7.26492 6.31807 -6.66238 6.28364 -6.45579Z" id="g2-97" />
<ns0:path d="M2.85776 -0.705833C2.85776 -1.13622 2.51345 -1.41167 2.15193 -1.41167C1.80762 -1.41167 1.4461 -1.13622 1.4461 -0.705833S1.79041 0 2.15193 0C2.49624 0 2.85776 -0.275447 2.85776 -0.705833Z" id="g3-46" />
</ns0:defs>
<ns0:g id="page1">
<ns0:use x="27.9837" ns1:href="#g2-97" y="74.7198" />
<ns0:use x="41.6144" ns1:href="#g1-50" y="74.7198" />
<ns0:use x="57.8734" ns1:href="#g0-82" y="74.7198" />
</ns0:g>
</ns0:svg>
